**kern	**kern
*staff1	*staff2
*clefG2	*clefF4
*k[f#c#]	*k[f#c#]
*M2/4	*M2/4
*D:	*D:
=	=
(16f#LL 16a	8DDL)
16A)	.
(16d 16f#	8DDJ 8D
16AJJ)	.
8dd' 8ff#'	8r
8r	8d' 8f#'
=34	=34
(16f#LL 16a	8r
16A)	.
(16d 16f#	8DD 8D
16AJJ)	.
8dd' 8ff#'	8r
8r	8d' 8f#'
=35	=35
16e	16r
16r	16E
16d	16r
16r	16D
16c#	16r
16r	16C#
16B	16r
16r	16BB
=36	=36
16A	16r
16r	16AA
16G	16r
16r	16GG
16F#	16r
16r	16FF#
16E	16r
16r	16EE
=37	=37
(16f#LL 16a	8r
16A)	.
16d 16f#	8DD 8D
16AJJ	.
8dd' 8ff#'	8r
8r	8d' 8f#'
=38	=38
(16f#LL 16a	8r
16A)	.
16d 16f#	8DD 8D
16AJJ	.
8dd' 8ff#'	8r
8r	8d' 8f#'
=39	=39
16e	16r
16r	16E
16d	16r
16r	16D
16c#	16r
16r	16C#
16B	16r
16r	16BB
=40	=40
16A	16r
16r	16AA
16A#	16r
16r	16AA#
16B	16r
16r	16BB
16c#	16r
16r	16C#
=41:|!|:	=41:|!|:
*-	*-
